X: 1328
T: An Paistin Fionn
R: hornpipe
M: 4/4
K: Edorian
|:F2 Bc dBBA|B3c dcBA|G2 Bc dBBA|Beed e2(3CDE|
F2 Bc dBBA|Bega b3 a|e2 ed BA FA|1 E2 ED E2 (3CDE:|2 E2 ED E2 (3Bcd||
|:F2 Bc dBBA|B3c dcBA|G2 Bc dBBA|Beed e2(3DEF|
G2 B=c dBBA|Bega b3 a|e2 ed BA FA|1 E2 ED E2 (3DEF:|2 E2 ED E2 (3Bcd|

